X:1
T:Title
%%score { ( 1 3 ) | ( 2 4 ) }
L:1/8
M:3/4
K:C
V:1 treble nm="Grand Piano"
V:3 treble 
V:2 bass 
V:4 bass 
V:1
 z2 z2[Q:1/4=114] [EG]2 | [EG]2 [FA]2 [EG]2 | [CE]2 [EG]2 [Gc]2 | c2 A2 c2 | [EG]4 [EG]2 | %5
 [B,DG]2 [B,D]2 [CE]2 | F2 B2 A2 | [EA]2 [EG]2 [_E^F]2 | [EG]4 [EG]2 | [Ge]2 [^F_e]2 [G=e]2 | %10
 [Ec]2 [EG]2 [EG]2 | A2 B2 c2 |[M:2/4] [EG]4 |[M:1/4] [Ec]2 |[M:3/4] B2 c2 d2 | d2 A2 [DFB]2 | %16
 [CEc]2 [Ec]2 [Fc]2 |[M:2/4] [Ec]4 |[M:1/4] [Ec]2 |[M:3/4] d3 d d2 | d2 A2 B2 | [Ec]2 [Ec]2 [FA]2 | %22
 [EG]4 [Ec]2 | d3 d d2 | d2 A2 B2 | [Ec]2 [Ec]2 [Fc]2 | [Ec]4 [EG]2 | [Ge]3 [Ge] [Ge]2 | %28
 [Ec]2 [Ec]2 [Gc]2 | d2 c2 A2 | [EG]4 [Ec]2 | B3 c d2 | [Fd]2 [FA]2 [FB]2 | c6- |[M:2/4] c4 |] %35
V:2
 z2 z2 [C,C]2 | [C,C]2 [C,C]2 [C,C]2 | [C,G,]2 [C,C]2 [E,C]2 | [F,A,F]2 [F,CF]2 [F,A,F]2 | %4
 [C,C]4 [C,C]2 | G,,2 [G,,G,]2 [G,,G,]2 | [G,B,D]2 [G,DF]2 [G,DF]2 | [C,C]2 [C,C]2 [C,C]2 | %8
 [C,C]4 [C,C]2 | [C,C]2 [C,C]2 [C,C]2 | [C,C]2 [C,C]2 [C,C]2 | [F,CF]2 [F,A,F]2 [F,A,F]2 | %12
[M:2/4] [C,C]4 |[M:1/4] [C,G,]2 |[M:3/4][K:treble] [G,F]2 [G,F]2 [G,B,F]2 | %15
 [G,B,F]2 [G,DF]2[K:bass] G,,2 | C,2 [C,G,]2 [C,A,]2 |[M:2/4] [C,G,]4 |[M:1/4] [C,C]2 | %19
[M:3/4][K:treble] [G,B,F]3 [G,B,F] [G,B,F]2 | [G,B,F]2 [G,DF]2 [G,F]2 | [C,G,]2 [C,G,]2 [C,C]2 | %22
 [C,C]4 [C,G,]2 | [G,F]3 [G,F] [G,F]2 | [G,B,F]2 [G,DF]2 [G,F]2 | [C,G,]2 [C,G,]2 [C,A,]2 | %26
 [C,G,]4 [C,C]2 | [C,C]3 [C,C] [C,C]2 | [C,G,]2 [C,G,]2 [E,G,]2 | [F,A,F]2 [F,A,F]2 [F,CF]2 | %30
 [C,C]4 [C,G,]2 | [G,F]3 [G,F] [G,F]2 | [G,,G,]2 [G,,G,]2 [G,,G,]2 | G,2 G,2 A,2 |[M:2/4] G,4 |] %35
V:3
 x6 | x6 | x6 | x6 | x6 | x6 | x6 | x6 | x6 | x6 | x6 | x6 |[M:2/4] x4 |[M:1/4] x2 |[M:3/4] x6 | %15
 x6 | x6 |[M:2/4] x4 |[M:1/4] x2 |[M:3/4] x6 | x6 | x6 | x6 | x6 | x6 | x6 | x6 | x6 | x6 | x6 | %30
 x6 | x6 | x6 | E2 E2 F2 |[M:2/4] E4 |] %35
V:4
 x6 | x6 | x6 | x6 | x6 | x6 | x6 | x6 | x6 | x6 | x6 | x6 |[M:2/4] x4 |[M:1/4] x2 | %14
[M:3/4][K:treble] x6 | x4[K:bass] x2 | x6 |[M:2/4] x4 |[M:1/4] x2 |[M:3/4][K:treble] x6 | x6 | x6 | %22
 x6 | x6 | x6 | x6 | x6 | x6 | x6 | x6 | x6 | x6 | x6 | C,6- |[M:2/4] C,4 |] %35

